X: 19
T:Contredanse n5
O:France
A:Provence
C:Imbert (vers 1825)
R:Contredanse
Z:Transcrit et/ou corrig par Michel BELLON - 2005-04-02
Z:Pour toute observation mailto:galouvielle@free.fr
M:2/4
L:1/8
P:ABA"Trio"A
%%continueall 1
K:F
P:A
d/2^c/2 | df df/2e/2 | fa fa/2f/2 | b/2a/2g/2f/2 eg | f2 {gf}e d/2^c/2 | df df/2e/2 |
fa fa/2f/2 | b/2a/2g/2f/2 ea | d3!fine! :: [P:B]fe | fa f{b}a/2g/2 | ac' aa/2f/2 |
b/2a/2g/2f/2 ef | (g/2f/2)ed cf/2e/2 | fa f{b}a/2g/2 | ac' aa/2f/2 | b/2a/2g/2f/2 ee | 
(g2f) :| [K:D] [P:Trio] A | ff ee | (d2A) A | aa gg |
(f2d/2)f/2g/2a/2 | b>b a>a | ^g>g =g>g | fa gf | (f2e) A | ff ee |
(d2A) A | aa gg | (f2d/2)f/2g/2a/2 | b>b a>a | ^g>g =g>g | ^f/2A/2d/2f/2 a/2g/2e/2c/2 | (e2d) |]
